assets/1. Faces/Partying face/Color/partying_face_color.svg

<svg width="100%" height="100%" viewBox="0 0 32 32" fill="none" xmlns="http://www.w3.org/2000/svg">
<g filter="url(#filter0_i_6810_5230)">
<path d="M16 29C24.6684 29 29 23.1797 29 16C29 8.8203 24.6684 3 16 3C7.33161 3 3 8.8203 3 16C3 23.1797 7.33161 29 16 29Z" fill="url(#paint0_radial_6810_5230)"/>
</g>
<path d="M16 29C24.6684 29 29 23.1797 29 16C29 8.8203 24.6684 3 16 3C7.33161 3 3 8.8203 3 16C3 23.1797 7.33161 29 16 29Z" fill="url(#paint1_radial_6810_5230)"/>
<path d="M5 3H17L3 16V5C3 3.89543 3.89543 3 5 3Z" fill="#BB1D80"/>
<path d="M5 3H17L3 16V5C3 3.89543 3.89543 3 5 3Z" fill="url(#paint2_linear_6810_5230)"/>
<path d="M8.41421 3L3 8.41421V5.58579L5.58579 3H8.41421Z" fill="#5092FF"/>
<path d="M13.4142 3L3 13.4142V10.5858L10.5858 3H13.4142Z" fill="#5092FF"/>
<g filter="url(#filter1_f_6810_5230)">
<circle cx="23.6884" cy="9.95155" r="1.10149" transform="rotate(28.149 23.6884 9.95155)" fill="#E37847" fill-opacity="0.75"/>
</g>
<path d="M24.75 8.75C26.2885 8.75 27.75 7.5 27.75 5.75" stroke="url(#paint3_radial_6810_5230)" stroke-width="1.5" stroke-linecap="round"/>
<path d="M6.75 27.75C8.28849 27.75 9.75 26.5 9.75 24.75" stroke="url(#paint4_radial_6810_5230)" stroke-width="1.5" stroke-linecap="round"/>
<circle cx="26" cy="28" r="1" fill="url(#paint5_radial_6810_5230)"/>
<circle cx="9" cy="20" r="1" fill="url(#paint6_radial_6810_5230)"/>
<circle cx="24" cy="3" r="1" fill="url(#paint7_radial_6810_5230)"/>
<g filter="url(#filter2_f_6810_5230)">
<path d="M19.5 19.9973H24.4288C25.8954 19.9973 27.0933 18.8257 27.126 17.3596L27.1433 16.5843C27.1675 15.4965 26.2924 14.6016 25.2043 14.6016V14.6016C24.3474 14.6016 23.6527 15.2962 23.6527 16.1531V17.0258C23.6527 17.527 24.059 17.9332 24.5601 17.9332V17.9332C25.0612 17.9332 25.4675 17.527 25.4675 17.0258V16.7418" stroke="#BB582B" stroke-opacity="0.5" stroke-width="1.5" stroke-linecap="round" stroke-linejoin="round"/>
</g>
<path d="M18.6477 19.8309H26.502C28.1491 19.8309 29.4972 18.5203 29.5437 16.8738L29.5519 16.5849C29.5958 15.0296 28.3469 13.7449 26.791 13.7449H26.7287C25.5428 13.7449 24.5814 14.7063 24.5814 15.8923V16.2063C24.5814 16.9223 25.1619 17.5027 25.8779 17.5027V17.5027C26.5939 17.5027 27.1744 16.9223 27.1744 16.2063V16.159" stroke="#00A6ED" stroke-width="1.5" stroke-linecap="round" stroke-linejoin="round"/>
<path d="M18.6477 19.8309H26.502C28.1491 19.8309 29.4972 18.5203 29.5437 16.8738L29.5519 16.5849C29.5958 15.0296 28.3469 13.7449 26.791 13.7449H26.7287C25.5428 13.7449 24.5814 14.7063 24.5814 15.8923V16.2063C24.5814 16.9223 25.1619 17.5027 25.8779 17.5027V17.5027C26.5939 17.5027 27.1744 16.9223 27.1744 16.2063V16.159" stroke="url(#paint8_radial_6810_5230)" stroke-width="1.5" stroke-linecap="round" stroke-linejoin="round"/>
<path d="M18.6477 19.8309H26.502C28.1491 19.8309 29.4972 18.5203 29.5437 16.8738L29.5519 16.5849C29.5958 15.0296 28.3469 13.7449 26.791 13.7449H26.7287C25.5428 13.7449 24.5814 14.7063 24.5814 15.8923V16.2063C24.5814 16.9223 25.1619 17.5027 25.8779 17.5027V17.5027C26.5939 17.5027 27.1744 16.9223 27.1744 16.2063V16.159" stroke="url(#paint9_radial_6810_5230)" stroke-width="1.5" stroke-linecap="round" stroke-linejoin="round"/>
<path d="M18.6477 19.8309H26.502C28.1491 19.8309 29.4972 18.5203 29.5437 16.8738L29.5519 16.5849C29.5958 15.0296 28.3469 13.7449 26.791 13.7449H26.7287C25.5428 13.7449 24.5814 14.7063 24.5814 15.8923V16.2063C24.5814 16.9223 25.1619 17.5027 25.8779 17.5027V17.5027C26.5939 17.5027 27.1744 16.9223 27.1744 16.2063V16.159" stroke="url(#paint10_radial_6810_5230)" stroke-width="1.5" stroke-linecap="round" stroke-linejoin="round"/>
<g filter="url(#filter3_f_6810_5230)">
<path d="M18.3665 19.6902H26.2207C27.8678 19.6902 29.216 18.3797 29.2625 16.7332L29.2706 16.4443C29.3146 14.8889 28.0657 13.6043 26.5097 13.6043H26.4475C25.2615 13.6043 24.3001 14.5657 24.3001 15.7516V16.0656C24.3001 16.7817 24.8806 17.3621 25.5966 17.3621V17.3621C26.3127 17.3621 26.8931 16.7817 26.8931 16.0656V16.0184" stroke="#A0D9FF" stroke-width="0.5" stroke-linecap="round" stroke-linejoin="round"/>
</g>
<g filter="url(#filter4_f_6810_5230)">
<circle cx="27.3359" cy="16" r="0.382812" fill="#C7E8FF"/>
</g>
<path d="M18 16.2399C17.4477 16.2399 17 16.6876 17 17.2399C17 17.7922 17.4477 18.2399 18 18.2399C18.1636 18.2399 18.2955 18.3718 18.2955 18.5354C18.2955 18.699 18.1636 18.8309 18 18.8309C17.4477 18.8309 17 19.2786 17 19.8309C17 19.8309 17 19.8308 17 19.8309C17 20.3831 17.4477 20.8309 18 20.8309C18.1636 20.8309 18.2955 20.9627 18.2955 21.1264C18.2955 21.29 18.1636 21.4218 18 21.4218C17.4477 21.4218 17 21.8695 17 22.4218C17 22.9741 17.4477 23.4218 18 23.4218C19.2682 23.4218 20.2955 22.3946 20.2955 21.1264C20.2955 20.6456 20.1479 20.1995 19.8955 19.8309C20.1479 19.4622 20.2955 19.0161 20.2955 18.5354C20.2955 17.2672 19.2682 16.2399 18 16.2399Z" fill="url(#paint11_radial_6810_5230)"/>
<g filter="url(#filter5_f_6810_5230)">
<path d="M18.8951 12.6769C18.8951 12.6769 19.4455 11.1838 20.8461 11.4505C22.6611 11.7961 22.797 13.75 22.797 13.75" stroke="url(#paint12_radial_6810_5230)" stroke-width="1.5" stroke-linecap="round"/>
</g>
<path d="M18.6477 13.0592C18.8626 12.5123 19.4133 11.4186 20.9773 11.4186C22.4836 11.4186 23.0822 12.5123 23.3118 13.0592" stroke="url(#paint13_radial_6810_5230)" stroke-width="1.8" stroke-linecap="round"/>
<g filter="url(#filter6_f_6810_5230)">
<path d="M9.51233 12.6719C9.51233 12.6719 10.0627 11.1788 11.4632 11.4455C13.2783 11.7911 13.4142 13.745 13.4142 13.745" stroke="url(#paint14_radial_6810_5230)" stroke-width="1.5" stroke-linecap="round"/>
</g>
<path d="M9.4707 13.0592C9.68559 12.5123 10.2363 11.4186 11.8003 11.4186C13.3066 11.4186 13.9052 12.5123 14.1348 13.0592" stroke="url(#paint15_radial_6810_5230)" stroke-width="1.8" stroke-linecap="round"/>
<defs>
<filter id="filter0_i_6810_5230" x="3" y="1" width="28" height="28" filterUnits="userSpaceOnUse" color-interpolation-filters="sRGB">
<feFlood flood-opacity="0" result="BackgroundImageFix"/>
<feBlend mode="normal" in="SourceGraphic" in2="BackgroundImageFix" result="shape"/>
<feColorMatrix in="SourceAlpha" type="matrix" values="0 0 0 0 0 0 0 0 0 0 0 0 0 0 0 0 0 0 127 0" result="hardAlpha"/>
<feOffset dx="2" dy="-2"/>
<feGaussianBlur stdDeviation="2"/>
<feComposite in2="hardAlpha" operator="arithmetic" k2="-1" k3="1"/>
<feColorMatrix type="matrix" values="0 0 0 0 0 0 0 0 0 0 0 0 0 0 0 0 0 0 0.08 0"/>
<feBlend mode="normal" in2="shape" result="effect1_innerShadow_6810_5230"/>
</filter>
<filter id="filter1_f_6810_5230" x="20.5867" y="6.84985" width="6.20337" height="6.20343" filterUnits="userSpaceOnUse" color-interpolation-filters="sRGB">
<feFlood flood-opacity="0" result="BackgroundImageFix"/>
<feBlend mode="normal" in="SourceGraphic" in2="BackgroundImageFix" result="shape"/>
<feGaussianBlur stdDeviation="1" result="effect1_foregroundBlur_6810_5230"/>
</filter>
<filter id="filter2_f_6810_5230" x="17.75" y="12.8516" width="11.1438" height="8.89575" filterUnits="userSpaceOnUse" color-interpolation-filters="sRGB">
<feFlood flood-opacity="0" result="BackgroundImageFix"/>
<feBlend mode="normal" in="SourceGraphic" in2="BackgroundImageFix" result="shape"/>
<feGaussianBlur stdDeviation="0.5" result="effect1_foregroundBlur_6810_5230"/>
</filter>
<filter id="filter3_f_6810_5230" x="17.1165" y="12.3543" width="13.4053" height="8.58594" filterUnits="userSpaceOnUse" color-interpolation-filters="sRGB">
<feFlood flood-opacity="0" result="BackgroundImageFix"/>
<feBlend mode="normal" in="SourceGraphic" in2="BackgroundImageFix" result="shape"/>
<feGaussianBlur stdDeviation="0.5" result="effect1_foregroundBlur_6810_5230"/>
</filter>
<filter id="filter4_f_6810_5230" x="25.9531" y="14.6172" width="2.76562" height="2.76562" filterUnits="userSpaceOnUse" color-interpolation-filters="sRGB">
<feFlood flood-opacity="0" result="BackgroundImageFix"/>
<feBlend mode="normal" in="SourceGraphic" in2="BackgroundImageFix" result="shape"/>
<feGaussianBlur stdDeviation="0.5" result="effect1_foregroundBlur_6810_5230"/>
</filter>
<filter id="filter5_f_6810_5230" x="17.6449" y="10.1681" width="6.4021" height="4.83191" filterUnits="userSpaceOnUse" color-interpolation-filters="sRGB">
<feFlood flood-opacity="0" result="BackgroundImageFix"/>
<feBlend mode="normal" in="SourceGraphic" in2="BackgroundImageFix" result="shape"/>
<feGaussianBlur stdDeviation="0.25" result="effect1_foregroundBlur_6810_5230"/>
</filter>
<filter id="filter6_f_6810_5230" x="8.26208" y="10.1631" width="6.4021" height="4.83191" filterUnits="userSpaceOnUse" color-interpolation-filters="sRGB">
<feFlood flood-opacity="0" result="BackgroundImageFix"/>
<feBlend mode="normal" in="SourceGraphic" in2="BackgroundImageFix" result="shape"/>
<feGaussianBlur stdDeviation="0.25" result="effect1_foregroundBlur_6810_5230"/>
</filter>
<radialGradient id="paint0_radial_6810_5230" cx="0" cy="0" r="1" gradientUnits="userSpaceOnUse" gradientTransform="translate(24.8232 9.50052) rotate(132.839) scale(34.8273)">
<stop stop-color="#FFF478"/>
<stop offset="0.474827" stop-color="#FFB02E"/>
<stop offset="1" stop-color="#F70A8D"/>
</radialGradient>
<radialGradient id="paint1_radial_6810_5230" cx="0" cy="0" r="1" gradientUnits="userSpaceOnUse" gradientTransform="translate(16.001 12.7508) rotate(90) scale(16.6092)">
<stop offset="0.823911" stop-color="#F59639" stop-opacity="0"/>
<stop offset="1" stop-color="#FF63C4"/>
</radialGradient>
<linearGradient id="paint2_linear_6810_5230" x1="3" y1="18.9453" x2="16" y2="4.13281" gradientUnits="userSpaceOnUse">
<stop stop-color="#5092FF"/>
<stop offset="0.859375" stop-color="#5092FF" stop-opacity="0"/>
</linearGradient>
<radialGradient id="paint3_radial_6810_5230" cx="0" cy="0" r="1" gradientUnits="userSpaceOnUse" gradientTransform="translate(27.8906 8.91406) rotate(-129.912) scale(3.23894 13.7191)">
<stop offset="0.359375" stop-color="#FF42B1"/>
<stop offset="0.854167" stop-color="#F70A8D"/>
<stop offset="1" stop-color="#CE336E"/>
</radialGradient>
<radialGradient id="paint4_radial_6810_5230" cx="0" cy="0" r="1" gradientUnits="userSpaceOnUse" gradientTransform="translate(9.89062 27.9141) rotate(-129.912) scale(3.23894 13.7191)">
<stop offset="0.359375" stop-color="#FF42B1"/>
<stop offset="0.854167" stop-color="#F70A8D"/>
<stop offset="1" stop-color="#CE336E"/>
</radialGradient>
<radialGradient id="paint5_radial_6810_5230" cx="0" cy="0" r="1" gradientUnits="userSpaceOnUse" gradientTransform="translate(26.5 27.5) rotate(135) scale(1.41421)">
<stop stop-color="#45C9FF"/>
<stop offset="1" stop-color="#3E80FF"/>
</radialGradient>
<radialGradient id="paint6_radial_6810_5230" cx="0" cy="0" r="1" gradientUnits="userSpaceOnUse" gradientTransform="translate(9.5 19.5) rotate(135) scale(1.41421)">
<stop stop-color="#45C9FF"/>
<stop offset="1" stop-color="#3E80FF"/>
</radialGradient>
<radialGradient id="paint7_radial_6810_5230" cx="0" cy="0" r="1" gradientUnits="userSpaceOnUse" gradientTransform="translate(24.5 2.5) rotate(135) scale(1.41421)">
<stop stop-color="#45C9FF"/>
<stop offset="1" stop-color="#3E80FF"/>
</radialGradient>
<radialGradient id="paint8_radial_6810_5230" cx="0" cy="0" r="1" gradientUnits="userSpaceOnUse" gradientTransform="translate(21.4375 15.3203) rotate(9.65183) scale(4.65971 7.89053)">
<stop offset="0.328125" stop-color="#1B6AD1"/>
<stop offset="1" stop-color="#2A80F0" stop-opacity="0"/>
</radialGradient>
<radialGradient id="paint9_radial_6810_5230" cx="0" cy="0" r="1" gradientUnits="userSpaceOnUse" gradientTransform="translate(26.1875 16.0547) rotate(27.8973) scale(1.20221 1.73102)">
<stop stop-color="#1B6AD1"/>
<stop offset="1" stop-color="#2A80F0" stop-opacity="0"/>
</radialGradient>
<radialGradient id="paint10_radial_6810_5230" cx="0" cy="0" r="1" gradientUnits="userSpaceOnUse" gradientTransform="translate(27.7812 22.0078) rotate(-92.9038) scale(4.31804 17.7684)">
<stop stop-color="#1B6AD1"/>
<stop offset="0.601914" stop-color="#2A80F0" stop-opacity="0"/>
</radialGradient>
<radialGradient id="paint11_radial_6810_5230" cx="0" cy="0" r="1" gradientUnits="userSpaceOnUse" gradientTransform="translate(17 19.8309) scale(5.92629 6.45766)">
<stop stop-color="#3E3537"/>
<stop offset="0.399715" stop-color="#442932"/>
<stop offset="0.675586" stop-color="#6A5662"/>
</radialGradient>
<radialGradient id="paint12_radial_6810_5230" cx="0" cy="0" r="1" gradientUnits="userSpaceOnUse" gradientTransform="translate(22.0723 12.0943) rotate(122.392) scale(3.48572 6.03136)">
<stop stop-color="#CA7A1B"/>
<stop offset="0.633527" stop-color="#CA7A1B" stop-opacity="0"/>
</radialGradient>
<radialGradient id="paint13_radial_6810_5230" cx="0" cy="0" r="1" gradientUnits="userSpaceOnUse" gradientTransform="translate(20.9797 13.213) rotate(-91.5327) scale(6.5392 9.16661)">
<stop offset="0.166667" stop-color="#482641"/>
<stop offset="0.276042" stop-color="#503A4A"/>
<stop offset="0.401042" stop-color="#483637"/>
</radialGradient>
<radialGradient id="paint14_radial_6810_5230" cx="0" cy="0" r="1" gradientUnits="userSpaceOnUse" gradientTransform="translate(12.6895 12.0893) rotate(122.392) scale(3.48572 6.03136)">
<stop stop-color="#CA7A1B"/>
<stop offset="0.633527" stop-color="#CA7A1B" stop-opacity="0"/>
</radialGradient>
<radialGradient id="paint15_radial_6810_5230" cx="0" cy="0" r="1" gradientUnits="userSpaceOnUse" gradientTransform="translate(11.8027 13.213) rotate(-91.5327) scale(6.5392 9.16661)">
<stop offset="0.166667" stop-color="#482641"/>
<stop offset="0.276042" stop-color="#503A4A"/>
<stop offset="0.401042" stop-color="#483637"/>
</radialGradient>
</defs>
</svg>

<svg width="100%" height="100%" viewBox="0 0 32 32" xmlns="http://www.w3.org/2000/svg"><g filter="url(#a)"><path fill="url(#b)" d="M16 29c8.668 0 13-5.82 13-13S24.668 3 16 3 3 8.82 3 16s4.332 13 13 13"/></g><path fill="url(#c)" d="M16 29c8.668 0 13-5.82 13-13S24.668 3 16 3 3 8.82 3 16s4.332 13 13 13"/><path fill="#BB1D80" d="M5 3h12L3 16V5a2 2 0 0 1 2-2"/><path fill="url(#d)" d="M5 3h12L3 16V5a2 2 0 0 1 2-2"/><path fill="#5092FF" d="M8.414 3 3 8.414V5.586L5.586 3zM13.414 3 3 13.414v-2.828L10.586 3z"/><g filter="url(#e)"><circle cx="23.688" cy="9.952" r="1.101" fill="#E37847" fill-opacity=".75" transform="rotate(28.149 23.688 9.952)"/></g><path stroke="url(#f)" stroke-linecap="round" stroke-width="1.5" d="M24.75 8.75c1.538 0 3-1.25 3-3"/><path stroke="url(#g)" stroke-linecap="round" stroke-width="1.5" d="M6.75 27.75c1.538 0 3-1.25 3-3"/><circle cx="26" cy="28" r="1" fill="url(#h)"/><circle cx="9" cy="20" r="1" fill="url(#i)"/><circle cx="24" cy="3" r="1" fill="url(#j)"/><g filter="url(#k)"><path stroke="#BB582B" stroke-linecap="round" stroke-linejoin="round" stroke-opacity=".5" stroke-width="1.5" d="M19.5 19.997h4.929a2.7 2.7 0 0 0 2.697-2.637l.017-.776a1.94 1.94 0 0 0-1.939-1.982v0c-.857 0-1.551.694-1.551 1.551v.873c0 .501.406.907.907.907v0a.907.907 0 0 0 .908-.907v-.284"/></g><path stroke="#00A6ED" stroke-linecap="round" stroke-linejoin="round" stroke-width="1.5" d="M18.648 19.83h7.854a3.043 3.043 0 0 0 3.042-2.956l.008-.29a2.76 2.76 0 0 0-2.761-2.84h-.062a2.147 2.147 0 0 0-2.148 2.148v.314c0 .716.58 1.297 1.297 1.297v0c.716 0 1.296-.58 1.296-1.297v-.047"/><path stroke="url(#l)" stroke-linecap="round" stroke-linejoin="round" stroke-width="1.5" d="M18.648 19.83h7.854a3.043 3.043 0 0 0 3.042-2.956l.008-.29a2.76 2.76 0 0 0-2.761-2.84h-.062a2.147 2.147 0 0 0-2.148 2.148v.314c0 .716.58 1.297 1.297 1.297v0c.716 0 1.296-.58 1.296-1.297v-.047"/><path stroke="url(#m)" stroke-linecap="round" stroke-linejoin="round" stroke-width="1.5" d="M18.648 19.83h7.854a3.043 3.043 0 0 0 3.042-2.956l.008-.29a2.76 2.76 0 0 0-2.761-2.84h-.062a2.147 2.147 0 0 0-2.148 2.148v.314c0 .716.58 1.297 1.297 1.297v0c.716 0 1.296-.58 1.296-1.297v-.047"/><path stroke="url(#n)" stroke-linecap="round" stroke-linejoin="round" stroke-width="1.5" d="M18.648 19.83h7.854a3.043 3.043 0 0 0 3.042-2.956l.008-.29a2.76 2.76 0 0 0-2.761-2.84h-.062a2.147 2.147 0 0 0-2.148 2.148v.314c0 .716.58 1.297 1.297 1.297v0c.716 0 1.296-.58 1.296-1.297v-.047"/><g filter="url(#o)"><path stroke="#A0D9FF" stroke-linecap="round" stroke-linejoin="round" stroke-width=".5" d="M18.367 19.69h7.854a3.043 3.043 0 0 0 3.041-2.957l.009-.289a2.76 2.76 0 0 0-2.761-2.84h-.062a2.147 2.147 0 0 0-2.148 2.148v.314c0 .716.58 1.296 1.297 1.296v0c.716 0 1.296-.58 1.296-1.296v-.048"/></g><g filter="url(#p)"><circle cx="27.336" cy="16" r=".383" fill="#C7E8FF"/></g><path fill="url(#q)" d="M18 16.24a1 1 0 1 0 0 2 .295.295 0 1 1 0 .59 1 1 0 0 0 0 2 .295.295 0 1 1 0 .592 1 1 0 1 0 0 2 2.295 2.295 0 0 0 1.895-3.591A2.295 2.295 0 0 0 18 16.24"/><g filter="url(#r)"><path stroke="url(#s)" stroke-linecap="round" stroke-width="1.5" d="M18.895 12.677s.55-1.493 1.951-1.226c1.815.345 1.951 2.299 1.951 2.299"/></g><path stroke="url(#t)" stroke-linecap="round" stroke-width="1.8" d="M18.648 13.06c.215-.548.765-1.641 2.33-1.641 1.506 0 2.104 1.093 2.334 1.64"/><g filter="url(#u)"><path stroke="url(#v)" stroke-linecap="round" stroke-width="1.5" d="M9.512 12.672s.55-1.493 1.951-1.227c1.815.346 1.951 2.3 1.951 2.3"/></g><path stroke="url(#w)" stroke-linecap="round" stroke-width="1.8" d="M9.47 13.06c.216-.548.766-1.641 2.33-1.641 1.507 0 2.105 1.093 2.335 1.64"/><defs><radialGradient id="b" cx="0" cy="0" r="1" gradientTransform="rotate(132.839 10.338 10.168)scale(34.8273)" gradientUnits="userSpaceOnUse"><stop stop-color="#FFF478"/><stop offset=".475" stop-color="#FFB02E"/><stop offset="1" stop-color="#F70A8D"/></radialGradient><radialGradient id="c" cx="0" cy="0" r="1" gradientTransform="rotate(90 1.625 14.376)scale(16.6092)" gradientUnits="userSpaceOnUse"><stop offset=".824" stop-color="#F59639" stop-opacity="0"/><stop offset="1" stop-color="#FF63C4"/></radialGradient><radialGradient id="f" cx="0" cy="0" r="1" gradientTransform="matrix(-2.07814 -2.48437 10.52297 -8.80232 27.89 8.914)" gradientUnits="userSpaceOnUse"><stop offset=".359" stop-color="#FF42B1"/><stop offset=".854" stop-color="#F70A8D"/><stop offset="1" stop-color="#CE336E"/></radialGradient><radialGradient id="g" cx="0" cy="0" r="1" gradientTransform="matrix(-2.07814 -2.48437 10.52297 -8.80232 9.89 27.914)" gradientUnits="userSpaceOnUse"><stop offset=".359" stop-color="#FF42B1"/><stop offset=".854" stop-color="#F70A8D"/><stop offset="1" stop-color="#CE336E"/></radialGradient><radialGradient id="h" cx="0" cy="0" r="1" gradientTransform="matrix(-1 1 -1 -1 26.5 27.5)" gradientUnits="userSpaceOnUse"><stop stop-color="#45C9FF"/><stop offset="1" stop-color="#3E80FF"/></radialGradient><radialGradient id="i" cx="0" cy="0" r="1" gradientTransform="matrix(-1 1 -1 -1 9.5 19.5)" gradientUnits="userSpaceOnUse"><stop stop-color="#45C9FF"/><stop offset="1" stop-color="#3E80FF"/></radialGradient><radialGradient id="j" cx="0" cy="0" r="1" gradientTransform="matrix(-1 1 -1 -1 24.5 2.5)" gradientUnits="userSpaceOnUse"><stop stop-color="#45C9FF"/><stop offset="1" stop-color="#3E80FF"/></radialGradient><radialGradient id="l" cx="0" cy="0" r="1" gradientTransform="matrix(4.59375 .78125 -1.32293 7.77884 21.438 15.32)" gradientUnits="userSpaceOnUse"><stop offset=".328" stop-color="#1B6AD1"/><stop offset="1" stop-color="#2A80F0" stop-opacity="0"/></radialGradient><radialGradient id="m" cx="0" cy="0" r="1" gradientTransform="matrix(1.0625 .5625 -.80992 1.52985 26.188 16.055)" gradientUnits="userSpaceOnUse"><stop stop-color="#1B6AD1"/><stop offset="1" stop-color="#2A80F0" stop-opacity="0"/></radialGradient><radialGradient id="n" cx="0" cy="0" r="1" gradientTransform="matrix(-.21875 -4.3125 17.74559 -.90013 27.781 22.008)" gradientUnits="userSpaceOnUse"><stop stop-color="#1B6AD1"/><stop offset=".602" stop-color="#2A80F0" stop-opacity="0"/></radialGradient><radialGradient id="q" cx="0" cy="0" r="1" gradientTransform="matrix(5.92629 0 0 6.45766 17 19.83)" gradientUnits="userSpaceOnUse"><stop stop-color="#3E3537"/><stop offset=".4" stop-color="#442932"/><stop offset=".676" stop-color="#6A5662"/></radialGradient><radialGradient id="s" cx="0" cy="0" r="1" gradientTransform="matrix(-1.86733 2.94335 -5.0929 -3.23105 22.072 12.094)" gradientUnits="userSpaceOnUse"><stop stop-color="#CA7A1B"/><stop offset=".634" stop-color="#CA7A1B" stop-opacity="0"/></radialGradient><radialGradient id="t" cx="0" cy="0" r="1" gradientTransform="matrix(-.1749 -6.53686 9.16333 -.24518 20.98 13.213)" gradientUnits="userSpaceOnUse"><stop offset=".167" stop-color="#482641"/><stop offset=".276" stop-color="#503A4A"/><stop offset=".401" stop-color="#483637"/></radialGradient><radialGradient id="v" cx="0" cy="0" r="1" gradientTransform="matrix(-1.86733 2.94335 -5.0929 -3.23105 12.69 12.09)" gradientUnits="userSpaceOnUse"><stop stop-color="#CA7A1B"/><stop offset=".634" stop-color="#CA7A1B" stop-opacity="0"/></radialGradient><radialGradient id="w" cx="0" cy="0" r="1" gradientTransform="matrix(-.1749 -6.53686 9.16333 -.24518 11.803 13.213)" gradientUnits="userSpaceOnUse"><stop offset=".167" stop-color="#482641"/><stop offset=".276" stop-color="#503A4A"/><stop offset=".401" stop-color="#483637"/></radialGradient><filter id="a" width="28" height="28" x="3" y="1" color-interpolation-filters="sRGB" filterUnits="userSpaceOnUse"><feFlood flood-opacity="0" result="BackgroundImageFix"/><feBlend in="SourceGraphic" in2="BackgroundImageFix" result="shape"/><feColorMatrix in="SourceAlpha" result="hardAlpha" values="0 0 0 0 0 0 0 0 0 0 0 0 0 0 0 0 0 0 127 0"/><feOffset dx="2" dy="-2"/><feGaussianBlur stdDeviation="2"/><feComposite in2="hardAlpha" k2="-1" k3="1" operator="arithmetic"/><feColorMatrix values="0 0 0 0 0 0 0 0 0 0 0 0 0 0 0 0 0 0 0.08 0"/><feBlend in2="shape" result="effect1_innerShadow_6810_5230"/></filter><filter id="e" width="6.203" height="6.203" x="20.587" y="6.85" color-interpolation-filters="sRGB" filterUnits="userSpaceOnUse"><feFlood flood-opacity="0" result="BackgroundImageFix"/><feBlend in="SourceGraphic" in2="BackgroundImageFix" result="shape"/><feGaussianBlur result="effect1_foregroundBlur_6810_5230" stdDeviation="1"/></filter><filter id="k" width="11.144" height="8.896" x="17.75" y="12.852" color-interpolation-filters="sRGB" filterUnits="userSpaceOnUse"><feFlood flood-opacity="0" result="BackgroundImageFix"/><feBlend in="SourceGraphic" in2="BackgroundImageFix" result="shape"/><feGaussianBlur result="effect1_foregroundBlur_6810_5230" stdDeviation=".5"/></filter><filter id="o" width="13.405" height="8.586" x="17.116" y="12.354" color-interpolation-filters="sRGB" filterUnits="userSpaceOnUse"><feFlood flood-opacity="0" result="BackgroundImageFix"/><feBlend in="SourceGraphic" in2="BackgroundImageFix" result="shape"/><feGaussianBlur result="effect1_foregroundBlur_6810_5230" stdDeviation=".5"/></filter><filter id="p" width="2.766" height="2.766" x="25.953" y="14.617" color-interpolation-filters="sRGB" filterUnits="userSpaceOnUse"><feFlood flood-opacity="0" result="BackgroundImageFix"/><feBlend in="SourceGraphic" in2="BackgroundImageFix" result="shape"/><feGaussianBlur result="effect1_foregroundBlur_6810_5230" stdDeviation=".5"/></filter><filter id="r" width="6.402" height="4.832" x="17.645" y="10.168" color-interpolation-filters="sRGB" filterUnits="userSpaceOnUse"><feFlood flood-opacity="0" result="BackgroundImageFix"/><feBlend in="SourceGraphic" in2="BackgroundImageFix" result="shape"/><feGaussianBlur result="effect1_foregroundBlur_6810_5230" stdDeviation=".25"/></filter><filter id="u" width="6.402" height="4.832" x="8.262" y="10.163" color-interpolation-filters="sRGB" filterUnits="userSpaceOnUse"><feFlood flood-opacity="0" result="BackgroundImageFix"/><feBlend in="SourceGraphic" in2="BackgroundImageFix" result="shape"/><feGaussianBlur result="effect1_foregroundBlur_6810_5230" stdDeviation=".25"/></filter><linearGradient id="d" x1="3" x2="16" y1="18.945" y2="4.133" gradientUnits="userSpaceOnUse"><stop stop-color="#5092FF"/><stop offset=".859" stop-color="#5092FF" stop-opacity="0"/></linearGradient></defs></svg>
